svg/u1f363.svg

<svg viewBox="0 0 128 128" xmlns="http://www.w3.org/2000/svg">
  <path d="M63.4,62.24c0,0-56.4,5.03-56.14,8.87s0.93,17.87,4.37,21.98s16.42,12.18,26.22,17.34 s27.67,13.9,37.6,13.64c9.93-0.26,27.94-16.02,28.73-20.12c0.79-4.1-0.26-18.8-0.26-18.8L63.4,62.24z" fill="#C9CABB"/>
  <path d="M44.6,29.4l-17.34,5.96c0,0,0.44,5.07,1.32,8.47c1.06,4.1,3.57,13.77,12.05,17.34 c8.47,3.57,54.81,13.9,57.59,13.11c2.78-0.79,11.39-7.81,14.56-10.46c3.18-2.65-30.72-36.67-30.72-36.67L44.6,29.4z" fill="#C9CABB"/>
  <path d="M51.75,28.08l-19.99,4.1c0,0,2.38,18.93,6.49,21.98s53.49,15.49,56.53,15.09 c3.05-0.4,14.3-8.74,14.3-8.74s3.05-10.59,2.91-10.99C111.86,49.13,51.75,28.08,51.75,28.08z" fill="#FFFFFF"/>
  <path d="M12.17,72.43c0,0,0.79,14.3,2.78,16.81c1.99,2.52,12.84,11.12,27.14,18.01s28.07,11.12,33.63,11.25 c5.56,0.13,22.51-13.24,23.83-15.89s-1.46-17.61-1.46-17.61L12.17,72.43z" fill="#FFFFFF"/>
  <path d="M24.74,39.59c4.53,2.07,7.55-7.02,21.45-7.15c13.9-0.13,26.48,7.28,35.22,11.65 s26.74,18.93,32.17,20.52c5.43,1.59,10.46-3.84,10.33-11.12c-0.13-7.28-3.18-26.88-23.04-39.59s-45.5-11.8-60.86-4.39 C24.6,16.97,16.23,35.7,24.74,39.59z" fill="#FF6110"/>
  <path d="M37.43,40.35c0.21,1.55,2.33,1.75,4.56,1.38c1.64-0.27,3.82-1.11,3.5-2.97 c-0.23-1.37-2.81-1.75-4.72-1.32S37.22,38.81,37.43,40.35z" fill="#D4D3D4"/>
  <path d="M74.95,50.57c-0.31,1.84,1.96,2.54,4.4,2.81c2.44,0.26,4.24,0.21,4.61-1.54 c0.37-1.75-2.12-2.6-3.97-2.81S75.26,48.67,74.95,50.57z" fill="#D4D3D4"/>
  <path d="M90.9,56.51c-1.14,0.99-0.69,2.54,1.54,4.56c2.23,2.01,3.71,2.01,4.56,1.06 c0.85-0.95-0.53-3.18-1.8-4.35C93.92,56.62,92.11,55.45,90.9,56.51z" fill="#D4D3D4"/>
  <path d="M16.76,85.18c-1.36,1.6-0.05,3.5,2.28,5.46s4.27,3.8,5.72,2.38c1.96-1.91-1.01-4.56-2.65-5.99 C20.47,85.6,18.25,83.43,16.76,85.18z" fill="#D4D3D4"/>
  <path d="M26.2,85.6c-0.7,1.29,0.09,2.67,2.49,3.87c2.33,1.17,3.6,1.11,4.4-0.16s-1.06-3.02-2.86-3.82 C28.42,84.7,26.88,84.33,26.2,85.6z" fill="#D4D3D4"/>
  <path d="M28.21,96.01c-0.09,1.5,0.45,2.68,5.02,3.12c4.57,0.45,5.43-0.95,5.47-2.12 c0.06-1.67-1.56-2.62-4.91-2.85C30.44,93.94,28.32,94.11,28.21,96.01z" fill="#D4D3D4"/>
  <path d="M31.38,37.22c-0.53-2.82-1.15-6.63-0.27-11.24c1.4-7.35,6.75-14.2,15.91-19.17 c4.08-1.33,8.89-2.12,12.71-2.46c1.44-0.13,2.74-0.19,3.81-0.2c-2.19,0.71-6.87,1.8-11.49,3.96c-9.8,4.58-15.49,11.44-16.79,18.27 c-0.62,3.26-0.5,6.3-0.18,8.63C33.78,35.74,32.44,36.49,31.38,37.22z" fill="#FE8E6E"/>
  <path d="M53.64,33.05c-0.03-3.42,0.68-8.18,4.13-12.15C63.46,14.35,72.5,11,78.29,9.45 c3.05-0.82,6.58-1.32,10.02-1.61c1.55,0.53,4.35,1.53,7.77,3.31c-4.39-0.06-10.04,0.2-14.77,1.47c-9.1,2.45-16.64,6.47-20.29,10.67 c-2.95,3.39-3.4,7.73-3.29,10.64C56.04,33.53,55.01,33.31,53.64,33.05z" fill="#FE8E6E"/>
  <path d="M73.26,39.96c1.04-3.01,3-6.81,6.72-9.87c9.67-7.94,20.18-8.85,23.45-9.19 c2.03-0.21,4.03-0.31,5.84-0.33c1.24,1.2,2.77,2.83,3.65,3.97c-2.22-0.1-5.16-0.11-8.18,0.22c-2.13,0.23-13.75,1.7-21.79,8.3 c-3.26,2.68-5.01,6.15-5.94,8.8C75.71,41.22,74.82,40.73,73.26,39.96z" fill="#FE8E6E"/>
  <path d="M91.01,50.03c1.5-2.22,4.15-5.5,8.12-8.07c6.64-4.31,12.71-5.78,20.16-5.78c0.23,0,0.46,0,0.69,0.01 c0.73,1.61,1.22,3.11,1.56,4.1c-0.7-0.07-1.45-0.11-2.25-0.11c-6.63,0-12.01,1.46-17.96,5.32c-3.39,2.2-5.7,4.99-6.99,6.83 C92.74,51.24,91.75,50.56,91.01,50.03z" fill="#FE8E6E"/>
  <path d="M30.37,19.98c0.98,0.53,0.62,3.05-0.62,4.96c-1.24,1.9-2.52,3.41-3.94,2.74 c-1.42-0.66-0.44-3.72,0.44-5.13C27.14,21.13,28.74,19.1,30.37,19.98z" fill="#F6FFFE"/>
  <path d="M49.76,16.4c1.94,2.22-1.77,3.76-1.99,5.84c-0.22,2.08,1.53,1.21,1.42,3.41 c-0.13,2.52-9.25,4.29-10.49-0.22C37.45,20.91,47.06,13.3,49.76,16.4z" fill="#F6FFFE"/>
  <path d="M70.19,21.68c-1.47-1.51-5.18-0.22-7.35,2.08c-2.17,2.3-2.74,6.28,1.19,7.74 c3.94,1.46,4.87-0.71,4.6-1.64c-0.17-0.61-0.66-2.04-0.09-3.05C69.13,25.8,71.96,23.5,70.19,21.68z" fill="#F6FFFE"/>
  <path d="M40.59,57.91c0,0-35.55,4.12-36.26,7.39c-0.84,3.88-0.19,6.75,1.38,8.67 c2.72,3.33,14.01,4.51,29.2,11.66c13.83,6.51,19.37,10.02,27.5,14.14c8.13,4.12,14.14,5.79,20.04,4.34 c5.9-1.45,12.69-3.9,18.37-8.46c4.29-3.45,5.84-8.32,5.45-13.25c-0.33-4.2-2.56-8.68-5.34-10.91C98.14,69.26,40.7,57.46,40.59,57.91 z" fill="#CC1935"/>
  <path d="M31.57,47.33C11.2,51.11,3.89,63.04,4.38,65.69c0.31,1.67,4.57,0.84,21.19,6.69 c24.05,8.46,43.22,18.54,50.01,19.66c9.34,1.53,18.87-3.82,22.6-6.57c6.03-4.45,6.75-9.08,4.53-12.08 C100.47,70.38,87.46,58,68.09,51.11C52.65,45.63,42.64,45.27,31.57,47.33z" fill="#FF605F"/>
  <path d="M17.16,55.13c-2.32-0.26-10.7,4.99-7.74,9.71c2.97,4.73,16.93,4.04,17.23,0.56 c0.35-4.01-7.82-4-8.98-5.72C16.51,57.97,19.89,55.44,17.16,55.13z" fill="#F9FFFF"/>
</svg>

<svg viewBox="0 0 128 128" xmlns="http://www.w3.org/2000/svg">
  <defs/>
  <path d="M63.4,62.24 C63.4,62.24 7,67.27 7.26,71.11 C7.52,74.95 8.19,88.98 11.63,93.09 C15.07,97.2 28.05,105.27 37.85,110.43 C47.65,115.59 65.52,124.33 75.45,124.07 C85.38,123.81 103.39,108.05 104.18,103.95 C104.97,99.85 103.92,85.15 103.92,85.15 L63.4,62.24 Z" fill="#C9CABB"/>
  <path d="M44.6,29.4 L27.26,35.36 C27.26,35.36 27.7,40.43 28.58,43.83 C29.64,47.93 32.15,57.6 40.63,61.17 C49.1,64.74 95.44,75.07 98.22,74.28 C101,73.49 109.61,66.47 112.78,63.82 C115.96,61.17 82.06,27.15 82.06,27.15 L44.6,29.4 Z" fill="#C9CABB"/>
  <path d="M51.75,28.08 L31.76,32.18 C31.76,32.18 34.14,51.11 38.25,54.16 C42.36,57.21 91.74,69.65 94.78,69.25 C97.83,68.85 109.08,60.51 109.08,60.51 C109.08,60.51 112.13,49.92 111.99,49.52 C111.86,49.13 51.75,28.08 51.75,28.08 Z" fill="#FFFFFF"/>
  <path d="M12.17,72.43 C12.17,72.43 12.96,86.73 14.95,89.24 C16.94,91.76 27.79,100.36 42.09,107.25 C56.39,114.14 70.16,118.37 75.72,118.5 C81.28,118.63 98.23,105.26 99.55,102.61 C100.87,99.96 98.09,85 98.09,85 L12.17,72.43 Z" fill="#FFFFFF"/>
  <path d="M24.74,39.59 C29.27,41.66 32.29,32.57 46.19,32.44 C60.09,32.31 72.67,39.72 81.41,44.09 C90.15,48.46 108.15,63.02 113.58,64.61 C119.01,66.2 124.04,60.77 123.91,53.49 C123.78,46.21 120.73,26.61 100.87,13.9 C81.01,1.19 55.37,2.1 40.01,9.51 C24.6,16.97 16.23,35.7 24.74,39.59 Z" fill="#FF6110"/>
  <path d="M37.43,40.35 C37.64,41.9 39.76,42.1 41.99,41.73 C43.63,41.46 45.81,40.62 45.49,38.76 C45.26,37.39 42.68,37.01 40.77,37.44 C38.86,37.87 37.22,38.81 37.43,40.35 Z" fill="#D4D3D4"/>
  <path d="M74.95,50.57 C74.64,52.41 76.91,53.11 79.35,53.38 C81.79,53.64 83.59,53.59 83.96,51.84 C84.33,50.09 81.84,49.24 79.99,49.03 C78.14,48.82 75.26,48.67 74.95,50.57 Z" fill="#D4D3D4"/>
  <path d="M90.9,56.51 C89.76,57.5 90.21,59.05 92.44,61.07 C94.67,63.08 96.15,63.08 97,62.13 C97.85,61.18 96.47,58.95 95.2,57.78 C93.92,56.62 92.11,55.45 90.9,56.51 Z" fill="#D4D3D4"/>
  <path d="M16.76,85.18 C15.4,86.78 16.71,88.68 19.04,90.64 C21.37,92.6 23.31,94.44 24.76,93.02 C26.72,91.11 23.75,88.46 22.11,87.03 C20.47,85.6 18.25,83.43 16.76,85.18 Z" fill="#D4D3D4"/>
  <path d="M26.2,85.6 C25.5,86.89 26.29,88.27 28.69,89.47 C31.02,90.64 32.29,90.58 33.09,89.31 C33.89,88.04 32.03,86.29 30.23,85.49 C28.42,84.7 26.88,84.33 26.2,85.6 Z" fill="#D4D3D4"/>
  <path d="M28.21,96.01 C28.12,97.51 28.66,98.69 33.23,99.13 C37.8,99.58 38.66,98.18 38.7,97.01 C38.76,95.34 37.14,94.39 33.79,94.16 C30.44,93.94 28.32,94.11 28.21,96.01 Z" fill="#D4D3D4"/>
  <path d="M31.38,37.22 C30.85,34.4 30.23,30.59 31.11,25.98 C32.51,18.63 37.86,11.78 47.02,6.81 C51.1,5.48 55.91,4.69 59.73,4.35 C61.17,4.22 62.47,4.16 63.54,4.15 C61.35,4.86 56.67,5.95 52.05,8.11 C42.25,12.69 36.56,19.55 35.26,26.38 C34.64,29.64 34.76,32.68 35.08,35.01 C33.78,35.74 32.44,36.49 31.38,37.22 Z" fill="#FE8E6E"/>
  <path d="M53.64,33.05 C53.61,29.63 54.32,24.87 57.77,20.9 C63.46,14.35 72.5,11 78.29,9.45 C81.34,8.63 84.87,8.13 88.31,7.84 C89.86,8.37 92.66,9.37 96.08,11.15 C91.69,11.09 86.04,11.35 81.31,12.62 C72.21,15.07 64.67,19.09 61.02,23.29 C58.07,26.68 57.62,31.02 57.73,33.93 C56.04,33.53 55.01,33.31 53.64,33.05 Z" fill="#FE8E6E"/>
  <path d="M73.26,39.96 C74.3,36.95 76.26,33.15 79.98,30.09 C89.65,22.15 100.16,21.24 103.43,20.9 C105.46,20.69 107.46,20.59 109.27,20.57 C110.51,21.77 112.04,23.4 112.92,24.54 C110.7,24.44 107.76,24.43 104.74,24.76 C102.61,24.99 90.99,26.46 82.95,33.06 C79.69,35.74 77.94,39.21 77.01,41.86 C75.71,41.22 74.82,40.73 73.26,39.96 Z" fill="#FE8E6E"/>
  <path d="M91.01,50.03 C92.51,47.81 95.16,44.53 99.13,41.96 C105.77,37.65 111.84,36.18 119.29,36.18 C119.52,36.18 119.75,36.18 119.98,36.19 C120.71,37.8 121.2,39.3 121.54,40.29 C120.84,40.22 120.09,40.18 119.29,40.18 C112.66,40.18 107.28,41.64 101.33,45.5 C97.94,47.7 95.63,50.49 94.34,52.33 C92.74,51.24 91.75,50.56 91.01,50.03 Z" fill="#FE8E6E"/>
  <path d="M30.37,19.98 C31.35,20.51 30.99,23.03 29.75,24.94 C28.51,26.84 27.23,28.35 25.81,27.68 C24.39,27.02 25.37,23.96 26.25,22.55 C27.14,21.13 28.74,19.1 30.37,19.98 Z" fill="#F6FFFE"/>
  <path d="M49.76,16.4 C51.7,18.62 47.99,20.16 47.77,22.24 C47.55,24.32 49.3,23.45 49.19,25.65 C49.06,28.17 39.94,29.94 38.7,25.43 C37.45,20.91 47.06,13.3 49.76,16.4 Z" fill="#F6FFFE"/>
  <path d="M70.19,21.68 C68.72,20.17 65.01,21.46 62.84,23.76 C60.67,26.06 60.1,30.04 64.03,31.5 C67.97,32.96 68.9,30.79 68.63,29.86 C68.46,29.25 67.97,27.82 68.54,26.81 C69.13,25.8 71.96,23.5 70.19,21.68 Z" fill="#F6FFFE"/>
  <path d="M40.59,57.91 C40.59,57.91 5.04,62.03 4.33,65.3 C3.49,69.18 4.14,72.05 5.71,73.97 C8.43,77.3 19.72,78.48 34.91,85.63 C48.74,92.14 54.28,95.65 62.41,99.77 C70.54,103.89 76.55,105.56 82.45,104.11 C88.35,102.66 95.14,100.21 100.82,95.65 C105.11,92.2 106.66,87.33 106.27,82.4 C105.94,78.2 103.71,73.72 100.93,71.49 C98.14,69.26 40.7,57.46 40.59,57.91 Z" fill="#CC1935"/>
  <path d="M31.57,47.33 C11.2,51.11 3.89,63.04 4.38,65.69 C4.69,67.36 8.95,66.53 25.57,72.38 C49.62,80.84 68.79,90.92 75.58,92.04 C84.92,93.57 94.45,88.22 98.18,85.47 C104.21,81.02 104.93,76.39 102.71,73.39 C100.47,70.38 87.46,58 68.09,51.11 C52.65,45.63 42.64,45.27 31.57,47.33 Z" fill="#FF605F"/>
  <path d="M17.16,55.13 C14.84,54.87 6.46,60.12 9.42,64.84 C12.39,69.57 26.35,68.88 26.65,65.4 C27,61.39 18.83,61.4 17.67,59.68 C16.51,57.97 19.89,55.44 17.16,55.13 Z" fill="#F9FFFF"/>
</svg>
